dist/images/icons/user-cabinet.svg

<svg width="30" height="30" viewBox="0 0 30 30" fill="none" xmlns="http://www.w3.org/2000/svg">
<rect x="0.500488" y="0.5" width="29" height="29" rx="14.5" fill="#FCFCFC"/>
<rect x="0.500488" y="0.5" width="29" height="29" rx="14.5" stroke="#121212"/>
<path d="M15.1957 14.6707C16.3869 14.6707 17.4182 14.2434 18.2612 13.4005C19.1038 12.5577 19.5312 11.5265 19.5312 10.3352C19.5312 9.14426 19.104 8.11296 18.261 7.26988C17.4181 6.42722 16.3867 6 15.1957 6C14.0044 6 12.9731 6.42722 12.1304 7.27002C11.2876 8.11282 10.8602 9.14416 10.8602 10.3352C10.8602 11.5265 11.2876 12.5579 12.1304 13.4007C12.9735 14.2433 14.0048 14.6707 15.1957 14.6707H15.1957ZM12.8764 8.01586C13.523 7.36916 14.2817 7.05483 15.1957 7.05483C16.1096 7.05483 16.8684 7.36916 17.5152 8.01586C18.1619 8.66266 18.4763 9.4214 18.4763 10.3352C18.4763 11.2492 18.1619 12.0079 17.5152 12.6547C16.8684 13.3015 16.1096 13.6158 15.1957 13.6158C14.2819 13.6158 13.5233 13.3014 12.8764 12.6547C12.2295 12.008 11.915 11.2493 11.915 10.3352C11.915 9.4214 12.2295 8.66266 12.8764 8.01586ZM22.7816 19.8411C22.7573 19.4904 22.7081 19.1077 22.6357 18.7038C22.5627 18.2967 22.4686 17.9119 22.356 17.5602C22.2396 17.1967 22.0815 16.8377 21.8858 16.4937C21.6829 16.1367 21.4446 15.8257 21.177 15.5699C20.8973 15.3023 20.5548 15.0871 20.1587 14.9301C19.7641 14.774 19.3267 14.6949 18.8588 14.6949C18.675 14.6949 18.4974 14.7702 18.1542 14.9937C17.9102 15.1525 17.6655 15.3103 17.4201 15.4669C17.1844 15.6171 16.8649 15.7579 16.4704 15.8854C16.0854 16.0099 15.6946 16.0731 15.3087 16.0731C14.9231 16.0731 14.5322 16.0099 14.147 15.8854C13.7529 15.758 13.4334 15.6173 13.198 15.467C12.9248 15.2925 12.6776 15.1332 12.4633 14.9935C12.1204 14.7701 11.9426 14.6947 11.7589 14.6947C11.2909 14.6947 10.8536 14.7739 10.4591 14.9302C10.0633 15.0869 9.72066 15.3021 9.44064 15.57C9.17314 15.826 8.93475 16.1368 8.73204 16.4937C8.53664 16.8377 8.37843 17.1965 8.26196 17.5603C8.14946 17.912 8.05542 18.2967 7.98236 18.7038C7.90984 19.1072 7.86083 19.49 7.8365 19.8415C7.8126 20.1852 7.80054 20.543 7.80054 20.9044C7.80054 21.844 8.09922 22.6047 8.68823 23.1657C9.26996 23.7193 10.0396 24 10.9757 24H19.6428C20.5787 24 21.3483 23.7193 21.9302 23.1657C22.5193 22.6051 22.818 21.8442 22.818 20.9043C22.8179 20.5416 22.8057 20.1839 22.7816 19.8411ZM21.2029 22.4014C20.8185 22.7673 20.3082 22.9451 19.6427 22.9451H10.9757C10.3101 22.9451 9.7998 22.7673 9.41554 22.4016C9.0386 22.0427 8.8554 21.5529 8.8554 20.9044C8.8554 20.5671 8.86651 20.2341 8.8888 19.9144C8.91045 19.6008 8.95482 19.2562 9.02063 18.8901C9.08557 18.5285 9.16822 18.1892 9.26655 17.882C9.36091 17.5874 9.48958 17.2957 9.64915 17.0147C9.80145 16.7469 9.97667 16.5172 10.17 16.3321C10.3509 16.1589 10.5789 16.0172 10.8475 15.9109C11.0959 15.8125 11.3751 15.7587 11.6782 15.7506C11.7151 15.7703 11.7809 15.8078 11.8875 15.8772C12.1043 16.0186 12.3542 16.1798 12.6306 16.3562C12.9421 16.5548 13.3433 16.7342 13.8227 16.8889C14.3128 17.0474 14.8127 17.1279 15.3089 17.1279C15.8051 17.1279 16.3051 17.0474 16.7949 16.8891C17.2747 16.734 17.6759 16.5548 17.9878 16.356C18.2705 16.1753 18.5135 16.0187 18.7303 15.8772C18.8369 15.8079 18.9026 15.7703 18.9396 15.7506C19.2428 15.7587 19.522 15.8125 19.7705 15.9109C20.039 16.0172 20.267 16.159 20.4479 16.3321C20.6412 16.517 20.8164 16.7468 20.9687 17.0149C21.1285 17.2957 21.2573 17.5875 21.3515 17.8818C21.45 18.1895 21.5328 18.5286 21.5976 18.8899C21.6632 19.2568 21.7077 19.6015 21.7294 19.9146V19.9149C21.7518 20.2333 21.7631 20.5662 21.7632 20.9044C21.7631 21.5531 21.5799 22.0428 21.2029 22.4014H21.2029Z" fill="#2B2A29"/>
</svg>

<svg width="30" height="30" fill="none" xmlns="http://www.w3.org/2000/svg"><rect x=".5" y=".5" width="29" height="29" rx="14.5" fill="#FCFCFC"/><rect x=".5" y=".5" width="29" height="29" rx="14.5" stroke="#121212"/><path d="M15.196 14.67a4.195 4.195 0 003.065-1.27 4.195 4.195 0 001.27-3.065c0-1.19-.427-2.222-1.27-3.065A4.196 4.196 0 0015.196 6a4.195 4.195 0 00-3.066 1.27 4.195 4.195 0 00-1.27 3.065 4.2 4.2 0 001.27 3.066 4.197 4.197 0 003.066 1.27zm-2.32-6.654c.647-.647 1.406-.961 2.32-.961.914 0 1.672.314 2.32.96.646.648.96 1.406.96 2.32 0 .914-.314 1.673-.96 2.32-.648.647-1.406.96-2.32.96a3.137 3.137 0 01-2.32-.96c-.646-.647-.961-1.406-.961-2.32 0-.914.315-1.672.961-2.32zm9.906 11.825c-.025-.35-.074-.733-.146-1.137a8.952 8.952 0 00-.28-1.144 5.645 5.645 0 00-.47-1.066 4.02 4.02 0 00-.709-.924 3.126 3.126 0 00-1.018-.64 3.52 3.52 0 00-1.3-.235c-.184 0-.362.075-.705.299-.244.159-.488.316-.734.473a4.24 4.24 0 01-.95.418 3.774 3.774 0 01-1.161.188 3.76 3.76 0 01-1.162-.188 4.195 4.195 0 01-.949-.418 95.55 95.55 0 01-.735-.474c-.343-.223-.52-.298-.704-.298-.468 0-.905.079-1.3.235a3.123 3.123 0 00-1.018.64 4.023 4.023 0 00-.709.924 5.66 5.66 0 00-.47 1.066 8.977 8.977 0 00-.28 1.144c-.072.403-.121.786-.146 1.137a15.4 15.4 0 00-.035 1.063c0 .94.298 1.7.887 2.262.582.553 1.352.834 2.288.834h8.667c.936 0 1.705-.28 2.287-.834.59-.56.888-1.322.888-2.262 0-.362-.012-.72-.036-1.063zm-1.58 2.56c-.384.366-.894.544-1.56.544h-8.666c-.666 0-1.176-.178-1.56-.543-.377-.36-.56-.85-.56-1.498 0-.337.01-.67.033-.99a9.377 9.377 0 01.378-2.032 4.61 4.61 0 01.382-.867 2.98 2.98 0 01.521-.683 2.06 2.06 0 01.678-.421c.248-.098.527-.152.83-.16.037.02.103.057.21.126.216.142.466.303.743.48a5.24 5.24 0 001.192.532c.49.158.99.239 1.486.239s.996-.08 1.486-.239c.48-.155.88-.334 1.193-.533.282-.18.526-.337.742-.479.107-.07.173-.107.21-.126.303.008.582.062.83.16.269.106.497.248.678.421.193.185.368.415.52.683.16.28.29.572.384.867.098.307.18.647.246 1.008.065.367.11.712.131 1.025.023.318.034.651.034.99 0 .648-.183 1.138-.56 1.496z" fill="#2B2A29"/></svg>
